!!!OTL: Jungfer Doertchen.
!!!OTL-incipit: Es war ein Jaeger wohlgemut,
!!!ARE: Europa, Mitteleuropa, Deutschland (BRD), Hessen, Nassau
!!!YOR: 3, S. 102
!!    1894 gedruckt in Berlin
!!!SCT: Q0057S
!!!TXL: @@DE
!!!YEM: Copyright 1995, estate of Helmut Schaffrath.
**kern	**text
*ICvox	*
*M3/4	*
*k[f#]	*
*G:	*
!LO:TX:a:t=26 Naſſau	!
{8g	Es
8g	war
8b	ein
=1	=1
4.dd	Jd-
8dd	-ger
8ee	wohl-
8dd	-ge-
=2	=2
4b	-mut,
8r}	.
{8dd	der
8gg	trug
8ee	ʒwei
=3	=3
4dd	Fe-
8b	-dern
8b	an
8cc	ſei-
8dd	-nem
=4	=4
4b	Hut;
8r}	.
{8b	die
8b	ei-
8b	-ne
=5	=5
4a	ſchwarʒ,
4dd	die
8ee	an-
16eeL	-dre
16ddJ	.
=6	=6
4b	rot
8r}	.
{8dd	'Jch
8gg	glaub'
8ee	für-
=7	=7
(4dd	-wahr,
8b)	.
8dd	mein
8ee	Schatʒ
8dd	iſt
=8	=8
4g	tot.
8r}	.
{8b	die
8b	ei-
8b	-ne
=9	=9
4a	ſchwarʒ,
4dd	die
8ee	an-
16eeL	-dre
16ddJ	.
=10	=10
4b	rot
8r}	.
{8dd	'Jch
8gg	glaub'
8ee	für-
=11	=11
(4dd	-wahr,
8b)	.
8dd	mein
8ee	Schatʒ
8dd	iſt
=12	=12
4g	tot.'
8r}	.
==	==
!!!AGN: Ballade, Todesahnung, Tod, Selbstmord
!!!ONB: ESAC (Essen Associative Code) Database: BALLADE
!!!AMT: simple triple
!!!AIN: vox
!!!EED: Helmut Schaffrath
!!!EEV: 1.0
!!!source: Deutsche Volkslieder mit ihren Melodien. Herausgegeben vom Deutschen Volksliedarchiv. Dritter Band Balladen. Berlin 1954.
!!!page: 102
!!!ENC: Anna Maria Matuszewska
!!!EEV: 2025/02/18
*-	*-
